X:1
T:Christ Is Risen
T:Christ Is Risen
T:George Coles Stebbins
T:Frances Jane (Fanny) Crosby, 1891
T:Public Domain Courtesy of the Cyber Hymnal™
C:George Coles Stebbins
Z:Public Domain
Z:Courtesy of the Cyber Hymnal™
%%score ( 1 2 ) ( 3 4 )
L:1/8
Q:1/4=107
M:3/4
K:C
V:1 treble 
V:2 treble 
V:3 bass 
V:4 bass 
V:1
 G>G | c2 G2 [Gc]>[Gd] | [Ge]2 [Ec]2 [Gc]>[Gc] | [Ac]3 [FA] [EG]>[DF] | E4 [DE]>[DE] | %5
w: 1.~Christ hath|ris- en! Hal- le-|lu- jah! Bless- èd|morn of life and|light! Lo, the|
w: 2.~Christ hath|ris- en! Hal- le-|lu- jah! Friends of|Je- sus, dry your|tears; Through the|
w: 3.~Christ hath|ris- en! Hal- le-|lu- jah! He hath|ris- en, as He|said; He is|
 [CA]2 [CE]2 [EA]>[EB] | [Ec]2 [CA]2 [Ec]>[Ee] | [Gd]2 [GB]2 [^FA]>G | G4 ||"^Refrain" G>G | %10
w: grave is rent a-|sun- der, Death is|con- quered through His|might.||
w: veil of gloom and|dark- ness, Lo, the|Son of God ap-|pears!|Christ is|
w: now the King of|glor- y, And our|great ex- alt- ed|Head.||
 [Fd]2 [Fd]4 [EG]>[Ec] | [Ge]2 [Ge]4 [Gc]>[Gc] | [Ac]3 A [AB]2 [AB]2 | [^GB]6 [=Gc]>[Fd] | %14
w: ||||
w: ris- en! Hal- le-|lu- jah! Glad- ness|fills the world to-|day; From the|
w: ||||
 [Ee]2 [Gc]4 [Ad]>[Ae] | [Af]2 [FA]4 [AB]>[Ac] | G2 [Ge]2 [Fd]3 [Ec] | [Ec]4 |] %18
w: ||||
w: tomb that could not|hold Him, See, the|stone is rolled a-|way!|
w: ||||
V:2
 G>G | c2 G2 x2 | x6 | x6 | E4 x2 | x6 | x6 | x11/2 G/ | G4 || G>G | x8 | x8 | x8 | x8 | x8 | x8 | %16
 G2 x6 | x4 |] %18
V:3
 G,>G, | C2 G,2 [E,C]>[G,B,] | C2 [C,G,]2 [E,C]>[E,C] | [F,C]3 [F,C] [E,C]>[G,,G,] | %4
 [C,G,]4 [B,,^G,]>[B,,G,] | [A,,A,]2 [A,,A,]2 [C,A,]>[E,^G,] | A,2 [A,,A,]2 [A,,A,]>[C,A,] | %7
 [D,B,]2 [D,D]2 [D,C]>[G,B,] | [G,B,]4 || [G,B,]>[G,B,] | [G,B,]2 [G,B,]4 [G,C]>[G,C] | %11
 [C,C]2 [C,C]4 [E,C]>[E,C] | [F,C]3 [F,C] [F,D]2 [F,^D]2 | E,6 [E,C]>[D,B,] | %14
 [C,C]2 [C,E]4 [F,D]>[E,^C] | [D,D]2 [D,D]4 [F,^D]>[^F,D] | [G,E]2 [G,C]2 (C2 B,)[C,C] | [C,C]4 |] %18
V:4
 G,>G, | C2 G,2 x2 | C2 x4 | x6 | x6 | x6 | A,2 x4 | x6 | x4 || x2 | x8 | x8 | x8 | E,6 x2 | x8 | %15
 x8 | x4 G,3 x | x4 |] %18

